svgs/sharp-regular/objects-align-bottom.svg

<svg xmlns="http://www.w3.org/2000/svg" viewBox="0 0 512 512"><!--! Font Awesome Pro 6.6.0 by @fontawesome - https://fontawesome.com License - https://fontawesome.com/license (Commercial License) Copyright 2024 Fonticons, Inc. --><path d="M512 512L0 512l0-48 512 0 0 48zM176 336l0-288-64 0 0 288 64 0zm-64 48l-48 0 0-48L64 48 64 0l48 0 64 0 48 0 0 48 0 288 0 48-48 0-64 0zm288-48l0-160-64 0 0 160 64 0zm-64 48l-48 0 0-48 0-160 0-48 48 0 64 0 48 0 0 48 0 160 0 48-48 0-64 0z"/></svg>

<svg xmlns="http://www.w3.org/2000/svg" viewBox="0 0 512 512"><!--! Font Awesome Pro 6.4.2 by @fontawesome - https://fontawesome.com License - https://fontawesome.com/license (Commercial License) Copyright 2023 Fonticons, Inc. --><path d="M512 512H0V464H512v48zM176 336V48H112V336h64zm-64 48H64V336 48 0h48 64 48V48 336v48H176 112zm288-48V176H336V336h64zm-64 48H288V336 176 128h48 64 48v48V336v48H400 336z"/></svg>
